X: 17224
T: Her Long Dark Hair Flowing Down Her Back
R: hornpipe
M: 4/4
K: Cmajor
cd|edcA d2cA|GE~E2 G2cd|edcA d2cd|eaag a2cd|
edcA decA|GE~E2 G2cd|edcA dcAG|A2AG A2:|
cd|egga g2ed|cAAB cBcd|eaag abag|e2dc d2cd|
egga g2ed|cAAB c3d|edcA dcAG|A2AG A2:|

